!!!COM:	L van Beethoven
!!!OTL:	String Quartet Op18 No4
**kern	**dynam
*I"Violoncello	*
*clefF4	*
*k[b-e-a-]	*
*c:	*
*M4/4	*
!LO:TX:a:B:t=Allegro ma non tanto	!
4r	.
=1!|:	=1!|:
8CCL	p
8C	.
8C	.
8C	.
8CL	.
8C	.
8C	.
8C	.
=2	=2
8CL	sf
8C	.
8C	.
8C	.
8CL	.
8C	.
8C	.
8C	.
=3	=3
8CCL	.
8C	.
8C	.
8C	.
8CL	.
8C	.
8C	.
8C	.
=4	=4
8CL	sf
8C	.
8C	.
8C	.
8CL	.
8C	.
8C	.
8C	.
=5	=5
8CCL	.
8C	.
8C	.
8C	.
8CL	.
8C	.
8C	.
8C	.
=6	=6
8CCL	.
8C	.
8C	.
8C	.
8CL	.
8C	.
8C	.
8C	.
=7	=7
8FL	.
8F	.
8A-	.
8A-	.
8F#L	.
8F#	.
8G	.
8G	.
=8	=8
8E-L	.
8E-	.
(8E-	.
8BB)	.
8CL	.
8G	.
8E-	.
8C	.
=9	=9
8GGL	.
8F	.
8F	.
8F	.
8FL	.
8F	.
8E-	.
8E-	.
=10	=10
8r	.
8BB	.
8BB	.
8BB	.
8BBL	.
8BB	.
8C	.
8C	.
=11	=11
!LO:TX:t=cresc.	!
8FFL	<
8F	.
8F	.
8F	.
8A-L	.
8A-	.
8F	.
8F	.
=12	=12
8F#L	.
8F#	.
8A-	.
8A-	.
8GL	.
8G	.
8GG	.
8GG	.
=13	=13
4C	ff
4r	.
4GG	.
4r	.
=14	=14
4C	.
4GG	.
4C	.
4r	.
=15	=15
4GG	.
4r	.
4C	.
4r	.
=16	=16
4GG	.
4C	.
4GG	.
4r	.
=17	=17
(2E-	ff
2D	.
=18	=18
2C	.
2BB-)	.
=19	=19
2.AA-	.
4AA-	.
=20	=20
8GGL	f
8G	p
8G	.
8G	.
8GL	.
8G	.
8G	.
8G	.
=21	=21
8GGL	.
8G	.
8G	.
8G	.
8GL	.
8G	.
8G	.
8G	.
=22	=22
8GGL	.
8G	.
8G	.
8G	.
8GL	.
8G	.
8G	.
8G	.
=23	=23
8GGL	.
8G	.
8G	.
8G	.
8GL	.
8G	.
8G	.
8G	.
=24	=24
4GG	.
4C	sf
4GG	.
4C	sf
=25	=25
4GG 4G	ff
4GG 4G	.
2r	.
=26	=26
4E-	f
4D-	p
4C	.
4GG	.
=27	=27
4AA-	.
4D-	.
4C	.
4GG	.
=28	=28
4AA-	.
(4GG	.
4AA-)	.
[4GG	.
=29	=29
2.GG	.
4r	.
=30	=30
4C	f
4B-	.
4A-	p
4E	.
=31	=31
4F	.
4BB-	.
4AA-	.
4EE	.
=32	=32
4FF	.
4EE	.
4FF	.
4AA-	.
=33	=33
2.BB-	.
4r	.
=34	=34
1r	.
=35	=35
4r	.
4r	.
2r	.
=36	=36
1r	.
=37	=37
1r	.
=38	=38
1r	.
=39	=39
2r	.
4GG	p
4r	.
=40	=40
4C	.
4r	.
4FF	.
4r	.
=41	=41
!LO:TX:t=cresc.	!
(4BB-	.
4AA-	.
4FF	.
4DD)	.
=42	=42
8EE-L	p
8BB-	.
8E-	.
8BB-	.
8DL	.
8BB-	.
8D	.
8BB-	.
=43	=43
8E-L	.
8BB-	.
8E-	.
8BB-	.
8E-L	.
8BB-	.
8GG	.
8EE-	.
=44	=44
8DDL	.
8BB-	.
8D	.
8BB-	.
8E-L	.
8D	.
8E-	.
8AA	.
=45	=45
8BB-L	.
8B-	.
8B-	.
8B-	.
(8AL	.
8B-	.
8A-	.
8B-)	.
=46	=46
!LO:TX:t=cresc.	!
(2G	<
2F	.
=47	=47
2E-	.
2D)	.
=48	=48
2C	.
2FF	.
=49	=49
8BB-L	[
8B-	p
8B-	.
8B-	.
4B-	.
4r	.
=50	=50
8r	.
8B-	.
8B-	.
8B-	.
4B-	.
4r	.
=51	=51
4r	.
!LO:TX:t=cresc.	!
4B-	.
4r	.
4B-	.
=52	=52
4r	.
4BB-	f
2r	.
=53	=53
4E-	p
4.G	sf
8G	.
8F	.
8E-	.
=54	=54
(4D	.
4F	.
4BB-	.
4D)	.
=55	=55
4E-	.
4.G	sf
8G	.
8F	.
8E-	.
=56	=56
(4D	.
4F	.
4BB-	.
4D)	.
=57	=57
4E-	.
4.G	sf
8G	.
8F	.
8E-	.
=58	=58
(8E-L	.
8A-)	.
4.A-	sf
8A-	.
8G	.
8F	.
=59	=59
(2B-	.
4A	.
4A-)	.
=60	=60
8GGL	p
4G	sf
[8G	.
8GL	.
8G	.
8F	.
8E-	.
=61	=61
8AA-L	.
4A-	sf
[8A-	.
8A-L	.
8A-	.
8G	.
8F	.
=62	=62
8BB-L	.
4B-	sf
[8B-	.
8B-L	.
8B-	.
8A-	.
8G	.
=63	=63
8A-L	.
8A-	.
8A-	.
8G	sf
8A-L	.
8A-	.
8A-	.
8G	sf
=64	=64
!LO:TX:t=cresc.	!
(2A-	<
2G-	.
=65	=65
2F	.
2E-)	.
=66	=66
4D	[
4r	.
2r	.
=67	=67
(4A-	.
4F	.
4D	.
4AA-)	.
=68	=68
4GG	.
4r	.
2r	.
=69	=69
8B-L	f
8BB-	.
8BB-	.
8BB-	.
8BB-L	.
8BB-	.
8BB-	.
8BB-	.
=70	=70
4E-	.
4r	.
4B-	pp
4G	.
=71	=71
4E-	.
4E	.
4F	.
4G	.
=72	=72
4A-	.
4r	.
4C-	.
4r	.
=73	=73
4BB-	.
4r	.
4BB-	f
4BB-	.
=74	=74
4E-	.
4r	.
4B-	pp
4G	.
=75	=75
4E-	.
4E	.
4F	.
4G	.
=76	=76
4A-	.
4r	.
4C	.
4r	.
=77	=77
4BB	.
4r	.
4GG	f
4GG	.
=78:|!|:	=78:|!|:
4C#	.
4r	.
4D	f
4D	.
=79	=79
8GGL	f
8G	p
8G	.
8G	.
8GL	.
8G	.
8G	.
8G	.
=80	=80
8GL	.
8G	.
8G	.
8G	.
8GL	.
8G	.
8F	.
8F	.
=81	=81
8E-L	.
8E-	.
8C	.
8C	.
8GL	.
8G	.
8GG	.
8GG	.
=82	=82
8AA-L	.
8A-	.
8A-	.
8A-	.
8A-L	.
8A-	.
8G	.
8G	.
=83	=83
8F#L	.
8F#	.
8F#	.
8F#	.
8F#L	.
8F#	.
8E-	.
8E-	.
=84	=84
8DL	.
8d	.
8d	.
8d	.
8dL	.
8d	.
8e-	.
8e-	.
=85	=85
8c#L	.
8c#	.
8e-	.
8e-	.
8dL	.
8d	.
8D	.
8D	.
=86	=86
8GL	.
8B-	.
8B-	.
8F#	.
8GL	.
8d	.
8B-	.
8G	.
=87	=87
!LO:TX:t=cresc.	!
8DL	.
8c	.
8c	.
8c	.
8cL	.
8c	.
8B-	.
8B-	.
=88	=88
8r	.
8A	.
8A	.
8A	.
8AL	.
8A	.
8G	.
8G	.
=89	=89
8r	.
8C	.
8C	.
8C	.
8E-L	.
8E-	.
8C	.
8C	.
=90	=90
8DDL	.
8D	.
8D	.
8D	.
8DDL	.
8D	.
8D	.
8D	.
=91	=91
[2GG	sf
8GGL	.
(8GG	.
8BB-	.
8AA)	.
=92	=92
(2AA	sf
4GG)	.
4r	.
=93	=93
[2AA	.
8AAL	.
(8AA	.
8C	.
8BB-)	.
=94	=94
(2BB-	sf
4AA)	.
4r	.
=95	=95
4BB-	.
4r	.
8r	.
(8BB-	.
8D	.
8C)	.
=96	=96
(4C	.
4.BB)	.
(8BB	.
8A-	.
8G)	.
=97	=97
!LO:TX:t=cresc.	!
(4G	.
4F)	.
2r	.
=98	=98
[2GG	.
8GGL	.
(8AA-	.
8GG	.
8FF)	.
=99	=99
4EE-	.
4r	.
2r	.
=100	=100
2.GG	sf
8.AA-L	.
16GG	.
=101	=101
4GG	.
4r	.
2r	.
=102	=102
2.GG	sf
8.AA-L	.
16GG	.
=103	=103
4GG	.
4r	.
2r	.
=104	=104
1r	.
=105	=105
2r	.
8r	.
!LO:TX:t=cresc.	!
(8E	.
8G	.
8F)	.
=106	=106
8EL	.
(8G	.
8B-	.
8A-	.
8GL)	.
8C	.
8C	.
8C	.
=107	=107
8D-L	p
8D-	.
8D-	.
8D-	.
8D-L	.
8D-	.
8D-	.
8D-	.
=108	=108
!LO:TX:t=cresc.	!
8D-L	<
8D-	.
8D-	.
8D-	.
8D-L	.
8D-	.
8D-	.
8D-	.
=109	=109
4C	ff
4FF	.
4C	.
4r	.
=110	=110
4FF	.
4C	.
4FF	.
4r	.
=111	=111
4CC 4C	.
4r	.
4FF	.
4r	.
=112	=112
4CC 4C	.
*clefG2	*
!LO:TX:t=decresc	!
2cc	.
4cc	.
=113	=113
(8ccL	p
8aa)	.
(2aa	.
4gg)	.
=114	=114
(qqff#	.
qqgg)	.
qqaa)	.
2gg	.
4ff	.
4cc	.
=115	=115
(8ccL	.
8bb-)	.
(2bb-	.
4aa)	.
=116	=116
(2aa	.
4gg)	.
4cc	.
=117	=117
(8ccL	.
8ccc)	.
2ccc	.
[4bb-	.
=118	=118
4bb-	.
2aa	.
[4gg	.
=119	=119
(8ggL	.
8ff)	.
8ee	.
8dd	.
(8ddL	.
8cc)	.
(8cc	.
8b)	.
=120	=120
4cc	.
*clefF4	*
!LO:TX:t=cresc.	!
(4BB-	.
4GG	.
4EE)	.
=121	=121
(2FF	p
2CC)	.
=122	=122
8FFL	.
(8C	.
8BB	.
8C	.
8D-L	.
8C	.
8AA-	.
8FF)	.
=123	=123
(2EE	.
2FF)	.
=124	=124
8CCL	.
(8c	.
8d-	.
8B-	.
8GL	.
8E	.
8C	.
8BB-)	.
=125	=125
!LO:TX:t=cresc.	!
2AA-	.
2E	.
=126	=126
2F	.
2C	.
=127	=127
2D-	.
2AA	.
=128	=128
2BB-	.
2AA-	.
=129	=129
4GG	pp
4BB	.
4D	.
4G	.
=130	=130
4GG	.
4r	.
2r	.
=131	=131
4GG	.
4C	.
4E-	.
4G	.
=132	=132
4GG	.
4r	.
2r	.
=133	=133
8GGL	.
8r	.
8BB	.
8r	.
8DL	.
8r	.
8G	.
8r	.
=134	=134
!LO:TX:t=cresc.	!
8A-L	<
8r	.
8B	.
8r	.
8dL	.
8r	.
8e-	.
8r	.
=135	=135
8fL	.
8r	.
8d	.
8r	.
8BL	.
8r	.
8A-	.
8r	.
=136	=136
8GL	.
8r	.
8F	.
8r	.
8E-L	.
8r	.
8D	.
8r	.
=137	=137
8CCL	f
8C	p
8C	.
8C	.
8CL	.
8C	.
8C	.
8C	.
=138	=138
8CL	sf
8C	.
8C	.
8C	.
8CL	.
8C	.
8C	.
8C	.
=139	=139
8CCL	.
8C	.
8C	.
8C	.
8CL	.
8C	.
8C	.
8C	.
=140	=140
8CL	sf
8C	.
8C	.
8C	.
8CL	.
8C	.
8C	.
8C	.
=141	=141
8CCL	.
8C	.
8C	.
8C	.
8CL	.
8C	.
8C	.
8C	.
=142	=142
8CCL	.
8C	.
8C	.
8C	.
8CL	.
8C	.
8C	.
8C	.
=143	=143
8FL	.
8F	.
8A-	.
8A-	.
8F#L	.
8F#	.
8G	.
8G	.
=144	=144
8E-L	.
8E-	.
(8E-	.
8BB)	.
8CL	.
8G	.
8E-	.
8C	.
=145	=145
8GGL	.
8F	.
8F	.
8F	.
8FL	.
8F	.
8E-	.
8E-	.
=146	=146
8r	.
8BB	.
8BB	.
8BB	.
8BBL	.
8BB	.
8C	.
8C	.
=147	=147
!LO:TX:t=cresc.	!
8FFL	<
8F	.
8F	.
8F	.
8A-L	.
8A-	.
8F	.
8F	.
=148	=148
8F#L	.
8F#	.
8A-	.
8A-	.
8GL	.
8G	.
8GG	.
8GG	.
=149	=149
4C	f
4r	.
4GG	.
4r	.
=150	=150
4C	.
4GG	.
4C	.
4r	.
=151	=151
4GG	.
4C	.
4GG	.
4r	.
=152	=152
4C	.
4GG	.
4C	.
4r	.
=153	=153
4AA-	.
4D-	.
4AA-	.
4r	.
=154	=154
4D-	.
4AA-	.
4D-	.
4r	.
=155	=155
4BB-	.
4E-	.
4BB-	.
4r	.
=156	=156
4GG-	ff
4r	.
4GG	.
4r	.
=157	=157
4AA-	.
4r	.
4AA-	.
4r	.
=158	=158
4GG	.
4r	.
2r	.
=159	=159
4C	p
4r	.
4GG	.
4r	.
=160	=160
4C	.
4r	.
2r	.
=161	=161
4BB	.
4r	.
4C	.
4r	.
=162	=162
4GG	.
4r	.
2r	.
=163	=163
1r	.
=164	=164
2r	.
4EE	.
4r	.
=165	=165
4AA	.
4r	.
4D	.
4r	.
=166	=166
!LO:TX:t=cresc.	!
(4GG	.
4F	.
4D	.
4BB)	.
=167	=167
8CL	.
8G	.
2G	.
4F	.
=168	=168
2F	.
8EL	.
8G	.
8E	.
8C	.
=169	=169
8BBL	.
8B	.
4B	.
4c	.
4F#	.
=170	=170
8GGL	.
8G	.
8G	.
8G	.
(8F#L	.
8G	.
8F	.
8G)	.
=171	=171
(2E	.
2D	.
=172	=172
2C	.
2BB)	.
=173	=173
2AA	.
2DD	.
=174	=174
8GGL	p
8G	.
8G	.
8G	.
4G	.
4r	.
=175	=175
8r	.
8G	.
8G	.
8G	.
4G	.
4r	.
=176	=176
!LO:TX:t=cresc.	!
4r	<
4G	.
4r	.
4G	.
=177	=177
4r	.
4GG	f
2r	.
=178	=178
4C	p
4.E	sf
8E	.
8D	.
8C	.
=179	=179
(4BB	.
4D	.
4GG	.
4BB)	.
=180	=180
4C	p
4.E	sf
8E	.
8D	.
8C	.
=181	=181
(4BB	.
4D	.
4GG	.
4BB)	.
=182	=182
4C	.
4.E	sf
8E	.
8D	.
8C	.
=183	=183
(8CL	.
8F)	.
4.F	sf
8F	.
8E	.
8D	.
=184	=184
!LO:TX:t=cresc.	!
2G	.
4F#	.
4F	.
=185	=185
8EL	p
4E	sf
[8E	.
8EL	.
8E	.
8D	.
8C	.
=186	=186
8FFL	.
4F	sf
[8F	.
8FL	.
8F	.
8E	.
8D	.
=187	=187
8GGL	.
4G	sf
[8G	.
8GL	.
8G	.
8F	.
8E	.
=188	=188
8FL	.
8F	.
8F	.
8E	sf
8FL	.
8F	.
8F	.
8E	sf
=189	=189
!LO:TX:t=cresc.	!
(2F	.
2E-	.
=190	=190
2D	.
2C)	.
=191	=191
4BB	.
4r	.
2r	.
=192	=192
(4F	.
4D	.
4BB	.
4FF)	.
=193	=193
4EE	.
4r	.
2r	.
=194	=194
8GL	f
8GG	.
8GG	.
8GG	.
8GGL	.
8GG	.
8GG	.
8GG	.
=195	=195
4C	.
4r	.
4G	pp
4E	.
=196	=196
4C	.
4C#	.
4D	.
4E	.
=197	=197
4F	.
4r	.
4AA-	.
4r	.
=198	=198
4GG	.
4r	.
4GG	f
4GG	.
=199	=199
4C	.
4r	.
4G	pp
4E-	.
=200	=200
4C	.
4C#	.
4D	.
4E-	.
=201	=201
4F	.
4r	.
4GG	.
4r	.
=202	=202
4AA-	.
4r	.
4AA-	f
4AA-	.
=203	=203
2.AA-	ff
4AA	sf
=204	=204
2.BB-	.
4BB-	sf
=205	=205
(4C-	.
4C	sf
4D-	.
4D)	sf
=206	=206
(4E-	.
4E	sf
4F	.
4F#)	sf
=207	=207
4G	.
4r	.
4A-	.
4r	.
=208	=208
4F	.
4r	.
4G	.
4r	.
=209	=209
8CL	.
8G	p
8F	.
8G	.
8E-L	.
8G	.
8BB	.
8G	.
=210	=210
8CL	.
8G	.
8F	.
8G	.
8E-L	.
8G	.
8BB	.
8G	.
=211	=211
!LO:TX:t=cresc.	!
8CL	<
8C	.
8BB-	.
8C	.
8AA-L	.
8C	.
8EE	.
8C	.
=212	=212
8FFL	.
8F	.
8FF	.
8F	.
8GGL	.
8G	.
8GG	.
8G	.
=213	=213
8CL	f
8C	.
8BB-	.
8C	.
8AA-L	.
8C	.
8EE	.
8C	.
=214	=214
8FFL	.
8F	.
8FF	.
8F	.
8GGL	.
8G	.
8GG	.
8G	.
=215	=215
8CL	ff
8c	.
8c	.
8c	.
8cL	.
8c	.
8c	sf
8c	.
=216	=216
8cL	.
8c	.
8c	sf
8c	.
8cL	.
8c	.
8c	sf
8c	.
=217	=217
8cL	.
8C	.
8C	.
8C	.
8CL	.
8C	.
8C	sf
8C	.
=218	=218
8CL	.
8CC	.
8CC	.
8CC	.
8CCL	.
(8CC	.
8EE-	sf
8DD)	.
=219	=219
4CC	ff
4r	.
4CC 4C	.
4r	.
=220	=220
2.CC 2.C	.
=221!|:	=221!|:
*k[]	*
*C:	*
*M3/8	*
!LO:TX:a:B:t=Andante scherzoso quasi Allegretto	!
4.r	.
=222	=222
4.r	.
=223	=223
4.r	.
=224	=224
4.r	.
=225	=225
4.r	.
=226	=226
4.r	.
=227	=227
4.r	.
=228	=228
4.r	.
=229	=229
4.r	.
=230	=230
4.r	.
=231	=231
4.r	.
=232	=232
4.r	.
=233	=233
!LO:TX:t=cresc.	!
8GGL	p
8GG	.
8GG	.
=234	=234
8CL	.
8C	.
16CLL	.
16BB-	.
=235	=235
8AAL	.
8AA	.
8AA	.
=236	=236
8DL	.
8D	.
8D	.
=237	=237
8CL	.
8C	.
8C	.
=238	=238
8FL	[
8FF	.
[8F	sf
=239	=239
8FL	.
(8F	.
8F#)	.
=240	=240
8GL	p
8r	.
8r	.
=241	=241
4.r	.
=242	=242
8GGJ	.
8FL	sf
8D	.
=243	=243
8GGJ	.
8EL	sf
8C	.
=244	=244
8GGL	.
8r	.
8r	.
=245	=245
4.r	.
=246	=246
8GGJ	.
(8FL	sf
8D)	.
=247	=247
8GGJ	.
(8EL	sf
8C)	.
=248	=248
16GGLL	.
16G	.
16G	.
16G	.
16E	.
16C	.
=249	=249
16GGLL	.
16G	.
16G	.
16G	.
16E	.
16C	.
=250	=250
!LO:TX:t=cresc.	!
16GGLL	<
16G	.
16E	.
16C	.
16GG	.
16G	.
=251	=251
16ELL	.
16C	.
16GG	.
16G	.
16E	.
16C	.
=252	=252
8GGL	f
8G	.
8r	.
=253	=253
8EEL	f
8EE	.
8EE	.
=254	=254
8CL	.
8C	.
(16CLL	.
16BB)	.
=255	=255
8AAL	.
8A	.
(16ALL	.
16G)	.
=256	=256
8F#L	.
8F#	.
(16F#LL	.
16E)	.
=257	=257
8DL	.
[4d	sf
=258	=258
4.d	p
=259	=259
8DL	.
[4d	sf
=260	=260
4.d	p
=261	=261
8DL	.
8d	.
8d	.
=262	=262
8dL	.
8r	.
8r	.
=263	=263
4.r	.
=264	=264
4.r	.
=265	=265
4.r	.
=266	=266
4.r	.
=267	=267
4.r	.
=268	=268
4.r	.
=269	=269
4.r	.
=270	=270
4.r	.
=271	=271
4.r	.
=272	=272
8EL	.
8E	.
8E	.
=273	=273
8AL	.
8r	.
8r	.
=274	=274
8DL	.
8D	.
8D	.
=275	=275
8GL	.
8r	.
8r	.
=276	=276
4.r	.
=277	=277
4.r	.
=278	=278
4.r	.
=279	=279
4.r	.
=280	=280
4.r	.
=281	=281
!LO:TX:t=cresc.	!
!LO:TX:t=cresc.	!
16BBLL	<
16B	<
16B	.
16B	.
16B	.
16A	.
=282	=282
16GGLL	.
16G	.
16G	.
16G	.
16G	.
16F#	.
=283	=283
16ELL	.
16D	.
16C	.
16BB	.
16AA	.
16GG	.
=284	=284
8F#L	[
4F	sf
=285	=285
8EL	.
4BB	sf
=286	=286
16.CLL	.
32AA	.
8DL	.
8DD	.
=287	=287
8GGL	.
8r	.
8r	.
=288	=288
4.r	.
=289	=289
4.r	.
=290	=290
4.r	.
=291	=291
4.r	.
=292	=292
8DDL	p
8DD	.
8DD	.
=293	=293
4.DD	.
=294	=294
8DL	.
8D	.
8D	.
=295	=295
16GLL	p
16d	.
16c	.
16B	.
16A	.
16G	.
=296	=296
16F#LL	.
16E	.
16D	.
16C	.
16BB	.
16AA	.
=297	=297
16GGLL	.
16D	.
16BB	.
16GG	.
16D	.
16DD	.
=298	=298
16GGLL	.
16D	.
16BB	.
16GG	.
16D	.
16DD	.
=299	=299
!LO:TX:t=cresc.	!
16GGLL	.
16BB	.
16D	.
16DD	.
16GG	.
16BB	.
=300	=300
16DLL	.
16DD	.
16GG	.
16BB	.
16D	.
16DD	.
=301	=301
8GGL	.
8r	.
8g	pp
=302	=302
8gL	.
8r	.
8r	.
=303:|!	=303:|!
4.r	.
=304	=304
4.r	.
=305	=305
4.r	.
=306	=306
4.r	.
=307	=307
4.r	.
=308	=308
4.r	.
=309	=309
4.r	.
=310	=310
4.r	.
=311	=311
4.r	.
=312	=312
4.r	.
=313	=313
4.r	.
=314	=314
8BB-L	f
8BB-	.
8BB-	.
=315	=315
16E-LL	.
16B-	.
16A-	.
16G	.
16F	.
16E-	.
=316	=316
16DLL	.
16C	.
16BB-	.
16AA-	.
16GG	.
16FF	.
=317	=317
8GGL	.
8EE-	.
8r	.
=318	=318
4.r	.
=319	=319
4.r	.
=320	=320
4.r	.
=321	=321
4.r	.
=322	=322
4.r	.
=323	=323
8AA-L	p
8r	.
8r	.
=324	=324
8E-L	sf
8r	.
8r	.
=325	=325
8A-L	sf
8r	.
8r	.
=326	=326
8E-L	sf
8r	.
8r	.
=327	=327
!LO:TX:t=decresc.	!
8EL	.
8r	.
8r	.
=328	=328
8FL	.
8r	.
8r	.
=329	=329
8G-L	.
8r	.
8r	.
=330	=330
8GL	.
8r	.
8r	.
=331	=331
4.r	.
=332	=332
4.r	.
=333	=333
4.r	.
=334	=334
(8C#L	pp
8C#	.
8C#)	.
=335	=335
(8DL	.
8D	.
8D)	.
=336	=336
8DL	.
8D	.
8D	.
=337	=337
8GG#L	.
8GG#	.
8GG#	.
=338	=338
8GG#L	.
8GG#	.
8GG#	.
=339	=339
8AAL	.
8AA	.
8AA	.
=340	=340
8FFL	.
8FF	.
8FF	.
=341	=341
8EEL	.
8E	.
8E	.
=342	=342
4.A	.
=343	=343
8EL	.
8E	.
8E	.
=344	=344
4.A	.
=345	=345
8EL	.
8EE	.
8EE	.
=346	=346
4.AA	sf
=347	=347
8EEL	.
8EE	.
8EE	.
=348	=348
4.AA	sf
=349	=349
8EEL	.
4AA	sf
=350	=350
8EEL	.
4AA	sf
=351	=351
8EEL	.
(8E	pp
8E)	.
=352	=352
[4.E	.
=353	=353
[4.E	.
=354	=354
[4.E	.
=355	=355
8EL	.
(8D	.
8D)	.
=356	=356
[4.D	.
=357	=357
[4.D	.
=358	=358
[4.D	.
=359	=359
8DL	.
(8D	.
8D)	.
=360	=360
[4.D	.
=361	=361
[4.D	.
=362	=362
4D	.
8r	.
=363	=363
4.r	.
=364	=364
4.r	.
=365	=365
4.r	.
=366	=366
8r	.
8r	.
16B	pp
16B	.
=367	=367
16cLL	.
16G	.
16E	.
16C	.
16D	.
16E	.
=368	=368
16FLL	.
16E	.
16F	.
16G	.
[8A	sf
=369	=369
16ALL	.
16D	.
16G	.
16F	.
16E	.
16D	.
=370	=370
16CLL	.
16G	.
16c	.
16B	.
16A	.
16G	.
=371	=371
16F#LL	.
16E	.
16D	.
16C	.
16BB	.
16AA	.
=372	=372
8GGL	.
8G	.
8r	.
=373	=373
8GGL	.
8G	.
8r	.
=374	=374
[4.GG	.
=375	=375
8GGL	.
8G	.
8G	.
=376	=376
8cL	.
8c	.
16c	.
16B	.
=377	=377
16ALL	.
16G	.
16F	.
16E	.
16D	.
16C	.
=378	=378
8BBL	.
8D	.
[8G	sf
=379	=379
8GL	.
8F#	.
(8c	sf
=380	=380
8BJ)	.
16.DLL	.
32D	.
16.D	.
32D	.
=381	=381
8GGL	.
[4C	sf
=382	=382
8CL	.
8FF#	.
(qqEET	.
qqFF#t)	.
8FF#t	.
=383	=383
8GGL	.
8D	.
[8G	sf
=384	=384
16GLL	.
16F	.
16E	.
16D	.
16C	.
16BB-	.
=385	=385
8AAL	.
8C	.
[8F	sf
=386	=386
!LO:TX:t=cresc.	!
16FLL	.
16E	.
16A	.
16G	.
16F	.
16E	.
=387	=387
16FLL	.
16C#	.
16D	.
16E	.
16F	.
16F#	.
=388	=388
8GL	p
8r	.
8r	.
=389	=389
4.r	.
=390	=390
8GGL	.
(8F	sf
8D)	.
=391	=391
8GGL	.
(8E	sf
8C)	.
=392	=392
8GGL	.
8r	.
8r	.
=393	=393
4.r	.
=394	=394
8GG	.
(8FL	sf
8D)	.
=395	=395
8GGJ	.
(8EL	sf
8C)	.
=396	=396
16GGLL	.
16G	.
16G	.
16G	.
16E	.
16C	.
=397	=397
16GGLL	.
16G	.
16G	.
16G	.
16E	.
16C	.
=398	=398
!LO:TX:t=cresc.	!
16GGLL	<
16G	.
16E	.
16C	.
16GG	.
16G	.
=399	=399
16ELL	.
16C	.
16GG	.
16G	.
16E	.
16C	[
=400	=400
8GGL	f
8G	.
8r	.
=401	=401
8CL	f
8C	.
8C	.
=402	=402
8AL	.
8A	.
(16ALL	.
16G)	.
=403	=403
8FL	.
8F	.
(16FLL	.
16E)	.
=404	=404
8DL	.
(16D	.
16C	.
16BB	.
16AA)	.
=405	=405
8GGL	.
[4G	sfp
=406	=406
4.G	.
=407	=407
8GGL	.
[4G	sfp
=408	=408
4.G	.
=409	=409
8GGL	.
8G	.
8G	.
=410	=410
8GL	.
8r	.
8r	.
=411	=411
4.r	.
=412	=412
4.r	.
=413	=413
4.r	.
=414	=414
4.r	.
=415	=415
4.r	.
=416	=416
4.r	.
=417	=417
4.r	.
=418	=418
4.r	.
=419	=419
4.r	.
=420	=420
8AL	pp
8A	.
8A	.
=421	=421
8DL	.
8r	.
8r	.
=422	=422
8GL	.
8G	.
8G	.
=423	=423
4.r	.
=424	=424
4.r	.
=425	=425
4.r	.
=426	=426
4.r	.
=427	=427
4.r	.
=428	=428
4.r	.
=429	=429
!LO:TX:t=cresc.	!
16ELL	<
16e	.
16e	.
16e	.
16e	.
16d	.
=430	=430
16CLL	.
16c	.
16c	.
16c	.
16c	.
16B	.
=431	=431
16ALL	.
16G	.
16F	.
16E	.
16D	.
16C	.
=432	=432
8BBL	[
4BB-	sf
=433	=433
8AAL	.
4E	sf
=434	=434
(16.FLL	.
32D)	.
8GL	.
8GG	.
=435	=435
8CL	p
8r	.
8r	.
=436	=436
4.r	.
=437	=437
4.r	.
=438	=438
4.r	.
=439	=439
4.r	.
=440	=440
8GGL	p
8GG	.
8GG	.
=441	=441
4.GG	.
=442	=442
8GGL	.
8GG	.
8GG	.
=443	=443
16CLL	.
16G	.
16F	.
16E	.
16D	.
16C	.
=444	=444
16BBLL	.
16AA	.
16GG	.
16FF	.
16EE	.
16DD	.
=445	=445
16CCLL	.
16e	.
16d	.
16c	.
16B	.
16A	.
=446	=446
16G#LL	.
16F#	.
16E	.
16D	.
16C	.
16BB	.
=447	=447
!LO:TX:t=cresc.	!
16AALL	<
16c	.
16B-	.
16A	.
16G	.
16F	.
=448	=448
16ELL	.
16D	.
16C	.
16BB-	.
16AA	.
16GG	.
=449	=449
8FFL	ff
8FF	.
8FF	.
=450	=450
8FF#L	.
8FF#	.
8FF#	.
=451	=451
4GG	.
8r	.
=452	=452
4.r	.
=453	=453
8GL	p
!LO:TX:t=cresc.	!
8G	.
8G	.
=454	=454
4.c	sfp
=455	=455
8BL	.
8r	.
8r	.
=456	=456
4.r	.
=457	=457
4.r	.
=458	=458
(8eL	pp
8e	.
8e)	.
=459	=459
!LO:TX:t=cresc.	!
8fL	.
8f	.
8f	.
=460	=460
8fL	.
8f	.
8f	.
=461	=461
8GL	.
8G	.
8G	.
=462	=462
8AL	.
8A	.
8A	.
=463	=463
!LO:TX:t=decresc.	!
8FL	.
8F	.
8F	.
=464	=464
8GL	.
8G	.
8G	.
=465	=465
8CL	pp
8r	.
8r	.
=466	=466
8BBL	.
8r	.
8r	.
=467	=467
8AAL	.
8r	.
8r	.
=468	=468
8FFL	.
8r	.
8r	.
=469	=469
8GGL	.
8r	.
8r	.
=470	=470
8CL	.
8E	.
8G	.
=471	=471
8DL	.
8GG	.
8r	.
=472	=472
16CLL	.
16C	.
16E	.
16E	.
16G	.
16G	.
=473	=473
8DL	.
8GG	.
8r	.
=474	=474
16CLL	.
16C	.
16E	.
16E	.
16G	.
16G	.
=475	=475
16CLL	.
16C	.
16E	.
16E	.
16G	.
16G	.
=476	=476
16CLL	.
16C	.
16E	.
16E	.
16GG	.
16GG	.
=477	=477
16CLL	.
16C	.
16E	.
16E	.
16GG	.
16GG	.
=478	=478
!LO:TX:t=cresc.	!
16CLL	.
16C	.
16GG	.
16GG	.
16GG	.
16GG	.
=479	=479
16GGLL	.
16GG	.
16GG	.
16GG	.
16GG	.
16GG	.
=480	=480
8CCL	.
8r	.
8c	p
=481	=481
8cL	.
8r	.
8r	.
=482!|:	=482!|:
*k[b-e-a-]	*
*c:	*
*M3/4	*
!LO:TX:a:B:t=Allegretto	!
4r	.
=483	=483
4CC	.
4C	.
4BB-	sf
=484	=484
4E-	.
4EE-	.
4C	sf
=485	=485
4GG	.
(4G	.
4c	sf
=486	=486
4A	.
4B-)	.
4r	.
=487	=487
4FF	.
4F	.
4G	sf
=488	=488
4A-	.
4AA-	.
(4F	sf
=489	=489
4GG)	.
4G	.
4G	.
=490	=490
4C	.
4r	.
=:|!|:	=:|!|:
4r	.
=491	=491
4C	f
4c	.
4c	.
=492	=492
4c	.
4c	.
4c	.
=493	=493
4c	.
4c	.
4c	.
=494	=494
4c	sf
4c	.
4c	.
=495	=495
4F	.
4c	.
4C	sf
=496	=496
4F	.
4c	.
4C	sf
=497	=497
4F	.
4c	.
4C	sf
=498	=498
4F	.
4r	.
4r	.
=499	=499
!LO:TX:t=cresc.	!
4D-	<
4d-	.
4d-	.
=500	=500
4d-	.
4d-	.
4d-	.
=501	=501
4d-	.
4d-	.
4d-	.
=502	=502
4d-	.
4d-	.
4d-	.
=503	=503
4d-	.
[2D-	sf
=504	=504
4D-	.
[2D-	sf
=505	=505
4D-	.
[2D-	sf
=506	=506
(4D-	.
4C	.
4BB)	.
=507	=507
(2C	.
4BB-	.
=508	=508
4AA-	.
4GG	.
4FF#)	.
=509	=509
[2.GG	.
=510	=510
[2.GG	.
=511	=511
!LO:TX:t=decresc.	!
[2.GG	.
=512	=512
[2.GG	.
=513	=513
4GG	.
4G	.
4G	.
=514	=514
4G	.
4r	.
4r	.
=515	=515
4CC	.
4C	.
4BB-	sf
=516	=516
4E-	.
4EE-	.
4E-	sf
=517	=517
4GG	.
(4G	.
4c	sf
=518	=518
4A	.
4B-)	.
(4e	.
=519	=519
4g	.
4f)	.
(4D-	.
=520	=520
4BB	.
4C)	.
(4AA-	.
=521	=521
4FF#	.
4GG)	.
(4F	.
=522	=522
!LO:TX:t=cresc.	!
4D	<
4E-)	.
(4AA	.
=523	=523
4BB	.
4C)	.
(4AA-	sf
=524	=524
4FF#	.
4GG)	.
4GG	.
=525	=525
4CC	.
4G	.
4G	sf
=526	=526
4G	.
4G	.
4G	.
=527	=527
(4C	sf
4GG)	.
4r	.
=528	=528
(4C	sf
4GG)	.
4r	.
=529	=529
4GG	.
4G	.
4G	sf
=530	=530
4G	.
4G	.
4G	.
=531	=531
2.GG	sf
=532	=532
4C	.
4r	.
=533:|!	=533:|!
4C	.
4r	.
4r	.
=534!|:	=534!|:
*k[b-e-a-d-]	*
*A-:	*
[2.AA-	p
=535	=535
[2.AA-	.
=536	=536
4AA-	.
4E-	.
4E-	.
=537	=537
(4.E-	.
8C	.
4AA-)	.
=538	=538
[2.GG	.
=539	=539
[2.GG	.
=540	=540
4GG	.
4E-	.
4E-	.
=541	=541
(4.E-	.
8BB-	.
4GG)	.
=542	=542
4AA-	.
4r	.
4r	.
=543	=543
2.r	.
=544	=544
!LO:TX:t=cresc.	!
4FF	<
4r	.
4r	.
=545	=545
2.r	.
=546	=546
4DD	.
4r	.
4r	.
=547	=547
(4.D	.
8F	.
4B-)	.
=548	=548
2.d	sfp
=549	=549
4r	.
4r	.
(4A-	p
=550	=550
4G)	.
4r	.
4r	.
=551	=551
4A-	.
4r	.
4r	.
=552	=552
4r	.
4B-	.
4BB-	.
=553	=553
4E-	.
4r	.
4r	.
=554:|!	=554:|!
[2.EE- [2.BB-	p
=555	=555
[2.EE- [2.BB-	.
=556	=556
4EE- 4BB-	.
4BB-	.
4BB-	.
=557	=557
(4.BB-	.
8GG	.
4EE-)	.
=558	=558
[2.DD [2.BB-	.
=559	=559
[2.DD [2.BB-	.
=560	=560
4DD 4BB-	.
4BB-	.
4BB-	.
=561	=561
(4.BB-	.
8FF)	.
4DD	.
=562	=562
4DD-	.
4r	.
4r	.
=563	=563
4r	.
!LO:TX:t=cresc.	!
4D-	.
4D-	.
=564	=564
4C	.
4r	.
4r	.
=565	=565
4r	.
4C	.
4C	.
=566	=566
4GG	.
4r	.
4r	.
=567	=567
2.r	.
=568	=568
2.r	.
=569	=569
(4.G	.
8B-	.
4e-)	.
=570	=570
2.g	sfp
=571	=571
4r	.
4r	.
(4d-	p
=572	=572
4c)	.
4r	.
4r	.
=573	=573
4d-	.
4r	.
4r	.
=574	=574
4r	.
4E-	.
4E-	.
=575	=575
4A-	.
4r	.
4r	.
=576	=576
4r	.
!LO:TX:t=decresc.	!
(4EE-	.
4EE	.
=577	=577
4FF)	.
4r	.
4r	.
=578	=578
4F	pp
4r	.
4r	.
=579	=579
!LO:TX:t=La seconda volta si prende il Tempo piu Allegro	!
4F#	.
4r	.
4r	.
=580	=580
4G	.
4r	.
4r	.
=581	=581
4r	.
4r	.
=582!|:	=582!|:
*k[b-e-a-]	*
*c:	*
*M2/2	*
!LO:TX:a:B:t=Allegro	!
4r	.
=583	=583
4C	p
4r	.
4C	.
4r	.
=584	=584
4C	.
4r	.
4r	.
4C	.
=585	=585
!LO:TX:t=cresc.	!
4BB	<
4C	.
4GG	.
4C	.
=586	=586
2.GG	f
4r	.
=587	=587
4C	p
4r	.
4C	.
4r	.
=588	=588
4C	.
4r	.
4r	.
4C#	.
=589	=589
4D	.
!LO:TX:t=cresc.	!
4C	<
4D	.
4DD	.
=590!|:	=590!|:
2.GG	sf
=	=
4r	.
=591	=591
4C	p
4r	.
4F	.
4r	.
=592	=592
4BB-	.
4r	.
4E-	.
4r	.
=593	=593
4AA-	.
4r	.
4A-	.
4r	.
=594	=594
2.G	.
4r	.
=595	=595
4C	p
4r	.
4C	.
4r	.
=596	=596
!LO:TX:t=cresc.	!
4E-	<
4BB-	.
4AA-	.
4GG	.
=597	=597
4FF	.
4AA-	f
4GG	.
4GG	.
=598!|:	=598!|:
2.CC	.
=	=
4r	.
=599	=599
(1A-	p
=600	=600
1B-)	.
=601	=601
(2c	.
2F)	.
=602	=602
2E-	.
[2e-	.
=603	=603
(2e-	.
2d-)	.
=604	=604
2d-	>
2c)	.
=605	=605
(2D-	]
2E-)	.
=606	=606
2.AA-	.
=:|!|:	=:|!|:
4r	.
=607	=607
(4E-	.
4B-	.
4G	.
4E-)	.
=608	=608
4BB-	.
4r	.
2r	.
=609	=609
(4E-	.
4B-	.
4G	.
4E-)	.
=610	=610
4A-	.
4r	.
2r	.
=611	=611
1E-	.
=612	=612
1BB-	.
=613	=613
!LO:TX:t=cresc.	!
2EE-	.
(2E-	.
=614	=614
2F	.
2G)	.
=615	=615
(1A-	p
=616	=616
1B-)	.
=617	=617
(2c	.
2F)	.
=618	=618
2E-	.
[2e-	.
=619	=619
2e-	.
[2d-	.
=620	=620
(2d-	.
4c)	.
4C	.
=621	=621
2D-	.
2E-	.
=622	=622
2.AA-	.
=623:|!	=623:|!
4AA-	.
!LO:TX:t=cresc	!
4GG#	.
4GG#	.
4GG#	.
=624	=624
4CC	p
4r	.
4C	.
4r	.
=625	=625
4C	.
4r	.
4r	.
4C	.
=626	=626
4BB	.
4C	.
4GG	.
4C	.
=627	=627
2.GG	f
4r	.
=628	=628
4C	p
4r	.
4C	.
4r	.
=629	=629
4C	.
4r	.
4r	.
4C#	.
=630	=630
4D	.
!LO:TX:t=cresc.	!
4E-	.
4D	.
4DD	.
=631	=631
2.GG	sf
4r	.
=632	=632
8CCL	p
8C	.
8C	.
8C	.
!LO:TX:t=cresc.	!
8CL	<
8C	.
8C	.
8C	.
=633	=633
8CL	.
8C	.
8C	.
8C	.
8CL	.
8C	.
8C	.
8C	.
=634	=634
8BBL	f
8BB	.
8C	.
8C	.
8GGL	.
8GG	.
8C	.
8C	.
=635	=635
8GGL	.
8GG	.
8FF	.
8FF	.
8EE-L	.
8EE-	.
8DD	.
8DD	.
=636	=636
8CCL	p
8C	.
8C	.
8C	.
!LO:TX:t=cresc.	!
8CL	<
8C	.
8C	.
8C	.
=637	=637
8CL	.
8C	.
8C	.
8C	.
8C#L	.
8C#	.
8C#	.
8C#	.
=638	=638
8DL	f
8D	.
8E-	.
8E-	.
8C#L	.
8C#	.
8D	.
8D	.
=639	=639
8GGL	.
8GG	.
8AA-	.
8AA-	.
8GGL	.
8GG	.
8FF	.
8FF	.
=640	=640
4EE	p
4CC	.
4FF	.
4r	.
=641	=641
4BB-	.
4r	.
4E-	.
4r	.
=642	=642
4AA-	.
4r	.
4A-	.
4r	.
=643	=643
2.G	.
4r	.
=644	=644
4C	p
4r	.
4C	.
4r	.
=645	=645
!LO:TX:t=cresc.	!
4C	<
4BB-	.
4AA-	.
4GG	.
=646	=646
4FF	[
4AA-	f
4GG	.
4GG	.
=647	=647
2.C	.
4r	.
=648	=648
8CL	sf
8C	.
8C	.
8C	.
4F	.
4r	.
=649	=649
8BB-L	sf
8BB-	.
8BB-	.
8BB-	.
4E-	.
4r	.
=650	=650
8AA-L	ff
8AA-	.
8AA-	.
8AA-	.
8AA-L	.
8AA-	.
8AA-	.
8AA-	.
=651	=651
8GGL	.
8GG	.
8FF	.
8FF	.
8EE-L	.
8EE-	.
8DD	.
8DD	.
=652	=652
8CCL	p
8C	.
8C	.
8C	.
!LO:TX:t=cresc.	!
8CL	<
8C	.
8C	.
8C	.
=653	=653
8CL	.
8C	.
8BB-	.
8BB-	.
8AA-L	.
8AA-	.
8GG	.
8GG	.
=654	=654
8FFL	f
8FF	.
8FF	.
8FF	.
8GGL	.
8GG	.
8GG	.
8GG	.
=655	=655
4CC	.
4r	.
4r	.
8r	.
=!|:	=!|:
*k[]	*
*C:	*
(24GGLL	f
24AA	.
24BB)	.
=656	=656
[1C	p
=657	=657
[1C	.
=658	=658
[1C	.
=659	=659
4C	.
4C	.
4C	.
4C	.
=660	=660
4D	.
4r	.
4D	.
4r	.
=661	=661
4GG	.
4r	.
4r	.
8r	.
=:|!|:	=:|!|:
(24DLL	.
24E	.
24F#)	.
=662	=662
[1G	fp
=663	=663
[2G	.
4.G	.
(24D	.
24E	.
24F#)	.
=664	=664
[1G	fp
=665	=665
[1G	.
=666	=666
[1G	.
=667	=667
2.G	.
4F#	.
=668	=668
4G	.
4r	.
4GG	.
4r	.
=669	=669
4C	.
4r	.
4r	.
8r	.
=670:|!	=670:|!
4C	.
4r	.
2r	.
=671!|:	=671!|:
*k[b-e-a-]	*
*c:	*
4C	p
4r	.
4C	.
4r	.
=672	=672
4C	.
4r	.
4r	.
4C	.
=673	=673
!LO:TX:t=cresc.	!
4BB	<
4C	.
4BB-	.
4AA-	.
=674	=674
4GG	f
4r	.
2r	.
=675	=675
4C	p
4r	.
4C	.
4r	.
=676	=676
4C	.
4r	.
4r	.
4C#	f
=677	=677
4D	.
4E-	.
4D	.
4DD	.
=678	=678
4GG	ff
4GG	.
4GG	.
4GG	p
=679:|!	=679:|!
4GG	ff
4GG	.
4GG	.
4GG	p
=680	=680
4CC	.
4r	.
4F	.
4r	.
=681	=681
4BB-	.
4r	.
4E-	.
4r	.
=682	=682
4AA-	.
4r	.
4AA-	.
4r	.
=683	=683
2.GG	.
4r	.
=684	=684
4C	p
4r	.
4C	.
4r	.
=685	=685
!LO:TX:t=cresc.	!
4C	<
4BB-	.
4AA-	.
4GG	.
=686	=686
4FF	.
4A-	f
4G	.
4GG	.
=687	=687
4C	ff
4CC	.
4CC	.
4CC	p
=688	=688
4CC	.
4C	.
4FF	.
4r	.
=689	=689
4BB-	.
4r	.
4EE-	.
4r	.
=690	=690
4AA-	.
4r	.
4AA-	.
4r	.
=691	=691
!LO:TX:t=cresc.	!
4GG	<
4GG	.
4GG	.
4GG	.
=692	=692
4CC	f
4r	.
4C	.
4r	.
=693	=693
4C	.
4BB-	.
4AA-	.
4GG	.
=694	=694
4FF	.
4AA-	.
4GG	.
4GG	.
=695	=695
4C	.
4r	.
2r	.
=696	=696
2r	.
4r	.
(8AA	.
8BB	.
=697	=697
2.C)	sf
(8E-	.
8F	.
=698	=698
2.G)	sf
(8E-	.
8C	.
=699	=699
2.GG)	sf
(8D	.
8BB)	.
=700	=700
4GG	.
(8D	.
8BB	.
4GG)	.
(8D	.
8BB	.
=701	=701
2.GG)	ff
4r	.
=702	=702
(1c	p
=703	=703
1d)	.
=704	=704
(2e	.
2A)	.
=705	=705
1G	.
=706	=706
(2c#	.
2d)	.
=707	=707
(2B	.
2c)	.
=708	=708
(2F	.
2G)	.
=709	=709
!LO:TX:t=pizz.	!
4C	.
4r	.
2r	.
=710	=710
4C	.
4r	.
2r	.
=711	=711
4GG	.
4r	.
2r	.
=712	=712
4C	.
4r	.
4BB	.
4r	.
=713	=713
4GG	.
4r	.
2r	.
=714	=714
4AA	.
4r	.
4D	.
4r	.
=715	=715
4GG	.
4r	.
4C	.
4r	.
=716	=716
4FF	.
4r	.
4GG	.
4r	.
=717	=717
4C	.
4r	.
4r	.
4BB-	.
=718	=718
4AA	.
4r	.
4D	.
4r	.
=719	=719
4GG	.
4r	.
4C	.
4r	.
=720	=720
!LO:TX:t=cresc.	!
4FF	.
4r	.
4F	.
4r	.
=721	=721
4G	.
4r	.
4GG	.
4r	.
=722	=722
4C	pp
4r	.
2r	.
=723	=723
!LO:TX:t=arco	!
4E	.
4r	.
2r	.
=724	=724
4D	.
4r	.
2r	.
=725	=725
(4GG	.
4GG	.
4GG	.
4GG)	.
=726	=726
4C	.
4r	.
2r	.
=727	=727
4E-	.
4r	.
2r	.
=728	=728
4BB-	.
4r	.
2r	.
=729	=729
(4BB-	.
4BB-	.
4BB-	.
4BB-)	.
=730	=730
4EE-	.
4r	.
2r	.
=731	=731
4G	.
4r	.
2r	.
=732	=732
4C	.
4r	.
2r	.
=733	=733
4C	.
4C	.
4C	.
4BB-	.
=734	=734
!LO:TX:t=cresc.	!
4AA-	<
4r	.
2r	.
=735	=735
4AA-	.
4r	.
2r	.
=736	=736
4AA-	.
4r	.
2r	.
=737	=737
4AA-	.
4AA-	.
4AA-	.
4AA-	.
=738	=738
[1GG	f
=739	=739
4GG	.
4G	.
4G	.
4G	.
=740	=740
[1GG	.
=741	=741
4GG	.
4G	.
4G	.
4G	.
=742	=742
4GG	f
4r	.
2r	.
=743	=743
1r	.
=744	=744
4GG	f
4r	.
2r	.
=745	=745
1r	.
=746	=746
1r	.
=747	=747
1r	.
=748	=748
!LO:TX:a:B:t=Prestissimo	!
4CC	ff
2C	sf
[4C	.
=749	=749
4C	.
2C	sf
4C	.
=750	=750
4BB	.
4C	.
4GG	.
4C	.
=751	=751
4GG	.
4GG	.
4GG	.
4GG	.
=752	=752
4CC	.
2C	.
[4C	.
=753	=753
4C	.
4C	.
4C#	.
4C#	.
=754	=754
4D	.
4E-	.
4D	.
4DD	.
=755	=755
2.GG	.
4r	.
=756	=756
4C	.
2C	sf
4F	.
=757	=757
4BB-	.
2BB-	sf
4E-	.
=758	=758
4AA-	.
4A-	.
4A-	.
4A-	.
=759	=759
2.G	.
4r	.
=760	=760
4CC	ff
2C	.
[4C	.
=761	=761
4C	.
4BB-	.
4AA-	.
4GG	.
=762	=762
4FF	.
4AA-	.
4GG	.
4GG	.
=763	=763
4C	.
4r	.
4r	.
4GG	p
=764	=764
4C	.
4r	.
4r	.
4GG	.
=765	=765
4C	.
4r	.
4r	.
!LO:TX:t=cresc.	!
4GG	<
=766	=766
4C	.
4GG	.
4C	.
4GG	.
=767	=767
4C	.
4r	.
4B-	.
4r	.
=768	=768
4A-	.
4r	.
4F	.
4r	.
=769	=769
4G	f
4r	.
2r	.
=770	=770
4GG	.
4r	.
2r	.
=771	=771
4C	p
4r	.
!LO:TX:t=cresc.	!
4BB-	<
4r	.
=772	=772
4AA-	.
4r	.
4GG	.
4r	.
=773	=773
4FF	[
4r	.
2r	.
=774	=774
4AA-	f
4r	.
2r	.
=775	=775
4GG	f
4r	.
2r	.
=776	=776
4GG	f
4r	.
2r	.
=777	=777
4C	.
4r	.
4r	.
4GG	sf
=778	=778
4D	.
4r	.
4r	.
4GG	sf
=779	=779
4E-	.
4r	.
4r	.
4C	sf
=780	=780
4F	.
4D	.
4G	.
4GG	.
=781	=781
4C	.
4GG	.
4C	.
4GG	sf
=782	=782
4D	.
4GG	.
4D	.
4GG	sf
=783	=783
4E-	.
4r	.
4E-	.
4r	.
=784	=784
1r	.
=785	=785
!LO:TX:t=decresc.	!
4F	.
4r	.
4F	.
4r	.
=786	=786
1r	.
=787	=787
4G	pp
4r	.
2r	.
=788	=788
4GG	.
4r	.
2r	.
=789	=789
[1CC	sf
=790	=790
4CC	.
4C	.
4C	.
4C	.
=791	=791
[1CC	sf
=792	=792
4CC	.
4C	.
4C	.
4C	.
=793	=793
2.CC	sf
4C	.
=794	=794
2.CC	sf
4C	.
=795	=795
2.CC	sf
4C	.
=796	=796
1r	.
=797	=797
1r	.
=798	=798
1r	.
=799	=799
2r	.
4r	.
8r	ff
(24GG	.
24AA	.
24BB	.
=800	=800
4C)	.
8r	.
(24GG	.
24AA	.
24BB	.
4C)	.
8r	.
(24GG	.
24AA	.
24BB	.
=801	=801
4C)	.
4r	.
2r	.
=802	=802
2r	.
4r	.
==	==
*-	*-
